X: 43315
T: Woods Of Old Limerick, The
R: jig
M: 6/8
K: Gmajor
|:B2G ABc|dgg fdc|B2 G ABc|ADD ABc|
B2G ABc|dgg fdc|B2 G ABc|1 AGF G2 A:|2 AGF Gga||
|:bgg gag|fd^c dga|bgg gab|c'af g2 a|
b3 afd|g3 fdc|B2 G ABc|1 AGF Gga:|2 AGF G3||

